X:1
T:Selig sind des Himmels Erben
T:Christian Heinrich Rinck
T:Friedrich Gottlieb Klopstock
T:Selig sind des Himmels Erben
T:CPDL   —   Creative Commons Attribution Non Commercial 3.0
T:CPDL   —   Creative Commons Attribution Non Commercial 3.0
T:CPDL   —   Creative Commons Attribution Non Commercial 3.0
T:CPDL   —   Creative Commons Attribution Non Commercial 3.0
C:Johann Christian Heinrich Rinck
Z:Friedrich Gottlieb Klopstock
Z:CPDL   —   Creative Commons Attribution Non Commercial 3.0
%%score [ ( 1 2 ) 3 4 ]
L:1/8
Q:1/4=100
M:4/4
K:Ab
V:1 treble nm="Sopran\nAlt"
V:2 treble 
V:3 treble-8 nm="Tenor"
V:4 bass nm="Bass"
V:1
"^Mäßig langsam"!p!!<(! A8!<)! |!>(! G4!>)! z4 |!<(! B6 A2!<)! |!f! e3 e e2 e2 | c4 d4 | %5
w: Se-|lig,|se- lig,|se- lig sind des|Him- mels|
!>(! B4!>)! .A2 z2 | z8 |!p!!<(! d4 c4!<)! | (c2!>(! B2) A4!>)! |!<(! G2 A2!<)! B2 c2 | %10
w: Er- ben,||se- lig,|se- * lig|sind des Him- mels|
 (e6!>(! c2) | B4!>)! z2 B2 | c6 G2 |!>(! A4 B4!>)! |!p! G6 G2 | A4 A2 A2 | B3!<(! B B2!<)! c2 | %17
w: Er- *|ben, die|To- ten,|die im|Her- ren|ster- ben, zur|Auf- er- ste- hung|
 e3!>(! d c2!>)! c2 | e6 e2 | e6 e2 |!f! g4 f4 | e4 z4 | z8 | z4 z2"^Chor"!p!!<(! E2!<)! | e6 d2 | %25
w: ein- ge- weiht, zur|Auf- er-|ste- hung|ein- ge-|weiht!||In|Frie- den|
 c2 ed c2 z2 |!pp! A4 A2 A2 | B4 B4 |!<(! c8-!<)! |!>(! c4!>)! z2!mf! c>c | c2 c2 z2"^cresc." c>c | %31
w: ru- hen _ sie,|los von der|Er- de|Müh!|_ Ho- si-|an- na! Ho- si-|
 d2 d2 z2!<(! d>d!<)! |!f!!>(! f8!>)! | d6!mf! B2 | (G4 A2) c2 | B4 z2!<(! c2!<)! | %36
w: an- na! Ho- si-|an-|na! Vor|Got- * tes|Thron, zu|
 (e2 d4)!>(! c2!>)! | B2 z2 z4 | z8 | z4 z2!f! d2 | (c2 B2) A2 f2 | e3 c e2 c2 |!>(! B4 B4 | %43
w: sei- * nem|Sohn,||be-|glei- * ten, be-|glei- ten ih- re|Wer- ke|
 A4!>)! z2!f! E>E | A2 A2 z2"^cresc." A>A | c2 c2 z2!ff! c>c | !^!e4!>(! c2!>)!!<(! c>c!<)! | %47
w: sie! Ho- si-|an- na! Ho- si-|an- na! Ho- si-|an- na! Ho- si-|
 !^!e4 c2!ff! c>c | B8 | A4 z4 |] %50
w: an- na! Ho- si-|an-|na!|
V:2
 E8 | E4 x4 | E6 E2 | G3 G G2 G2 | A4 F4 | D4 C2 x2 | x8 | B4 A4 | G4 A4 | E2 E2 E2 E2 | A8 | %11
w: |||||||||||
 G4 x2 F2 | (F2 =E2 F2) G2 | F4 F4 | =E6 E2 | F4 F2 F2 | G3 G G2 A2 | B3 B A2 z2 | %18
w: |||||||
 z2 A2"^cresc." G2 ^F2 | G6 G2 | B6 A2 | G4 x4 | x8 | z8 | z2!p! E2 E2 E2 | E2 E2 E2 x2 | %26
w: zur Auf- er-|ste- hung|ein- ge-|weiht!|||in Frie- den||
 F4 F2 F2 | F4 F4 | =E8- | E4 x2 =E>E | F2 F2 x2 _G>G | F2 F2 x2 F>F | A8 | F6 F2 | E6 E2 | %35
w: |||||||||
 E2 E2 E4- | E6 E2 | E2 x2 x4 | x8 | x4 x2 G2 | (A2 G2) A2 A2 | A3 A A2 A2 | A4 G4 | A4 x2 E>E | %44
w: * zu sei-|* nem|Sohn,|||||||
 E2 E2 x2 E>E | E2 E2 x2 E>E | E4 E2 E>E | E4 E2 A>A | (A4 G4) | A4 x4 |] %50
w: ||||||
V:3
!p!!<(! c8!<)! |!>(! d4!>)! z4 |!<(! d6 c2!<)! |!f! B3 B B2 B2 | c4 A4 |!>(! G4!>)! .A2 z2 | z8 | %7
w: Se-|lig,|se- lig,|se- lig sind des|Him- mels|Er- ben,||
!p!!<(! e4 e4!<)! | (e2!>(! d2) c4!>)! |!<(! d2 c2!<)! B2 A2 | (c6!>(! A2) | %11
w: se- lig,|se- * lig|sind des Him- mels|Er- *|
 e2!>)!!mf! B2 (e2 _d2 | c6) c2 |!>(! c4 d4!>)! |!p! c6 c2 | c4 c2 c2 | _e3!<(! e e2!<)! e2 | %17
w: ben, die To- *|* ten,|die im|Her- ren|ster- ben, zur|Auf- er- ste- hung|
 e3!>(! e e2!>)! z2 | z2 c2"^cresc." B2 =A2 | B6 e2 |!f! e4 =d4 |!>(! e4!>)! z2!p! E2 | %22
w: ein- ge- weiht,|zur Auf- er-|ste- hung|ein- ge-|weiht! In|
!<(! [B_d]6!<)! [Ac]2 | [GB]2 [Bd][Ac] [GB]2 z2 | z2!p!!>(! c2 c2 G2!>)! | A2 B2 c2 z2 | %26
w: Frie- den|ru- hen _ sie,|in Frie- den|ru- hen sie,|
!pp! c4 c2 c2 | d4 F4 |!<(! G8-!<)! |!>(! G4!>)! z2!mf! G>G | A2 A2 z2"^cresc." A>A | %31
w: los von der|Er- de|Müh!|_ Ho- si-|an- na! Ho- si-|
 A2 A2 z2!<(! A>A!<)! |!f!!>(! d8!>)! | A6!mf! B2 | (B2 d2 c2) A2 | G4 z2!<(! A2!<)! | %36
w: an- na! Ho- si-|an-|na! Vor|Got- * * tes|Thron, zu|
 (B4!>(! A2) A2!>)! | G2!mf!!<(! E2 F2 G2 | (A2 B2 c2) d2!<)! |!f! e3 E E2 B2 | (c2 d2) e2 d2 | %41
w: sei- * nem|Sohn, be- glei- ten|ih- * * re|Wer- ke sie, be-|glei- * ten, be-|
 c3 c c2 c2 |!>(! e6 d2 | c4!>)! z2!f! c>c | c2 c2 z2"^cresc." c>c | c2 c2 z2!ff! c>c | %46
w: glei- ten ih- re|Wer- ke|sie! Ho- si-|an- na! Ho- si-|an- na! Ho- si-|
 !^!B4!>(! c2!>)!!<(! c>c!<)! | !^!B4 c2!ff! A>A |!<(! (f4!<)!!>(! e2 d2)!>)! | c4 z4 |] %50
w: an- na! Ho- si-|an- na! Ho- si-|an- * *|na!|
V:4
!p!!<(! A,8!<)! |!>(! B,4!>)! z4 |!<(! G,6 A,2!<)! |!f! E,3 E, E,2 E,2 | A,4 D,4 | %5
w: |||||
!>(! E,4!>)! .A,,2 z2 |!p! (E,3 F,) E,4 |!<(! G,4 A,4!<)! |!>(! E,4 A,4!>)! | %9
w: |se- * lig,|||
!<(! B,2 A,2!<)! G,2 A,2 | E,8 |!>(! E,4!>)! z4 | z2 C,2 =D,2 =E,2 |!>(! F,4 B,,4!>)! | %14
w: |||die To- ten,||
!p! C,6 C,2 | F,4 F,2 F,2 | _E,3!<(! E, E,2!<)! A,2 | G,3!>(! G, A,2!>)! z2 | z8 | z2 B,2 G,2 E,2 | %20
w: |||||zur Auf- er-|
!f! B,3 B, B,,2!>(! B,,2 | E,4!>)! z4 | z2!p! E,2 G,2 A,2 | E,3 E, E,2 z2 | %24
w: ste- hung ein- ge-|weiht!|In Frie- den|ru- hen sie,|
 z2!p!!>(! A,,2 C,2 E,2!>)! | A,2 G,2 A,2 z2 |!pp! F,4 F,2 F,2 | D,4 D,4 |!<(! C,8-!<)! | %29
w: |||||
!>(! C,4!>)! z2!mf! C,>C, | F,2 F,2 z2"^cresc." _E,>E, | D,2 D,2 z2!<(! D,>D,!<)! |!f!!>(! D8!>)! | %33
w: ||||
 D,6!mf! D,2 | E,6 E,2 | E,4 z2!<(! A,2!<)! | (G,4!>(! A,2) A,2!>)! | E,2!mf!!<(! E,2 F,2 G,2 | %38
w: |||||
 (A,2 B,2 C2) D2!<)! |!f! E3 E, E,2 E,2 | (A,,2 B,,2) C,2 D,2 | E,3 A, C2 A,2 |!>(! E,4 E,4 | %43
w: |||||
 A,4!>)! z2!f! A,,>A,, | A,2 A,2 z2"^cresc." A,,>A,, | A,2 A,2 z2!ff! A,>A, | %46
w: |||
 !^!G,4!>(! A,2!>)!!<(! A,>A,!<)! | !^!G,4 A,2!ff! F,>F, |!<(! (D,4!<)!!>(! E,4)!>)! | A,,4 z4 |] %50
w: ||||

